X: 10887
T: Drops Of Gin
R: reel
M: 4/4
K: Dmajor
|:A2BA FDDF|A2 FA G EE2|A2BA FDD2|1 G2 FG E2 FG:|2 G2 FG E4||
D2 FA dAFA|dAFA G E2G|D2FA dAFA|GEFD E4|
D2 FA dAFA|dAFA G E3|D2FA dfec|dBAF E2 (FG)||

